src/assets/icons/content-type-builder-icon.svg

<svg width="24" height="24" viewBox="0 0 24 24" fill="none" xmlns="http://www.w3.org/2000/svg">
<path fill-rule="evenodd" clip-rule="evenodd" d="M2.18182 0C0.976833 0 0 0.976833 0 2.18182V21.8182C0 23.0232 0.976833 24 2.18182 24H21.8182C23.0232 24 24 23.0232 24 21.8182V2.18182C24 0.976833 23.0232 0 21.8182 0H2.18182ZM11.5361 11.9868H19.075C19.3889 11.9868 19.6243 12.196 19.6243 12.536V19.0749C19.6243 19.415 19.3889 19.6242 19.075 19.6242H11.5361C11.1961 19.6242 10.9868 19.3888 10.9868 19.0749V12.536C10.9868 12.196 11.2222 11.9868 11.5361 11.9868ZM4.89839 9.71724H19.0748C19.3886 9.71724 19.624 9.50799 19.624 9.16797V4.89851C19.624 4.55849 19.4148 4.34924 19.0748 4.34924H4.89839C4.58452 4.34924 4.34912 4.55849 4.34912 4.89851V9.16797C4.34912 9.50799 4.58452 9.71724 4.89839 9.71724ZM8.16785 19.6242H4.89839C4.58452 19.6242 4.34912 19.3888 4.34912 19.0749V12.536C4.34912 12.196 4.58452 11.9868 4.89839 11.9868H8.16785C8.50787 11.9868 8.71712 12.196 8.71712 12.536V19.0749C8.71712 19.415 8.48172 19.6242 8.16785 19.6242Z" fill="#32324D"/>
</svg>

<svg width="24" height="24" fill="none" xmlns="http://www.w3.org/2000/svg"><path fill-rule="evenodd" clip-rule="evenodd" d="M2.182 0A2.182 2.182 0 000 2.182v19.636C0 23.023.977 24 2.182 24h19.636A2.182 2.182 0 0024 21.818V2.182A2.182 2.182 0 0021.818 0H2.182zm9.354 11.987h7.539c.314 0 .55.209.55.549v6.539c0 .34-.236.55-.55.55h-7.539c-.34 0-.55-.236-.55-.55v-6.539c0-.34.236-.55.55-.55zm-6.638-2.27h14.177c.314 0 .549-.209.549-.549v-4.27c0-.34-.21-.549-.55-.549H4.899c-.313 0-.549.21-.549.55v4.269c0 .34.236.55.55.55zm3.27 9.907h-3.27a.536.536 0 01-.549-.55v-6.538c0-.34.236-.55.55-.55h3.269c.34 0 .55.21.55.55v6.539c0 .34-.236.55-.55.55z" fill="#32324D"/></svg>
